X:2
T:Aly Grogan
R:jig
C:Welsh Trad.
N:followed by #29 Mopsy's tune. The jigs are
N:odd feeling, at first, because of the short A sections -- the dance
N:needed 24 bar tunes and this is what you got. so, yes, you *don't
N:repeat the A section on &quot;Mopsy's Tune&quot; ... as much as you might want
N:to (actually, you can to whatever the hell you want ;-)
Z:Gary Chapin <gchapin@CTEL.NET>
M:6/8
L:1/8
K:G
dBG dBG|cAF cAF|B/2c/2dB c>AF|G2G G3:|
|:gag gfe|ded dBG|gag efg|A2A A3|
gag gfe|ded dBG|B/2c/2dB c>AF|G2G G3:||
